src/assets/images/types/dark.svg

<svg width="512" height="512" fill="none" xmlns="http://www.w3.org/2000/svg"><path fill-rule="evenodd" clip-rule="evenodd" d="M229.379 452.85a197.056 197.056 0 0 0 29.833 2.261c108.002 0 195.555-87.553 195.555-195.555C454.767 151.553 367.214 64 259.212 64c-7.246 0-14.401.394-21.442 1.162 53.575 40.589 88.997 110.9 88.997 190.838 0 84.04-39.151 157.44-97.388 196.85ZM255.656 512c141.385 0 256-114.615 256-256S397.041 0 255.656 0s-256 114.615-256 256 114.615 256 256 256Z" fill="#fff"/></svg>

<svg width="512" height="512" viewBox="0 0 512 512" fill="none" xmlns="http://www.w3.org/2000/svg">
<path fill-rule="evenodd" clip-rule="evenodd" d="M229.379 452.85C239.106 454.339 249.068 455.111 259.212 455.111C367.214 455.111 454.767 367.558 454.767 259.556C454.767 151.553 367.214 64 259.212 64C251.966 64 244.811 64.3941 237.77 65.1621C291.345 105.751 326.767 176.062 326.767 256C326.767 340.04 287.616 413.44 229.379 452.85ZM255.656 512C397.041 512 511.656 397.385 511.656 256C511.656 114.615 397.041 0 255.656 0C114.271 0 -0.34375 114.615 -0.34375 256C-0.34375 397.385 114.271 512 255.656 512Z" fill="white"/>
</svg>
